_includes/icons/color-documents.svg

<svg fill="#666" height="50" viewBox="0 0 48 48" width="50" xmlns="http://www.w3.org/2000/svg"><path d="m42 38h-25v-33h17l8 8z" fill="#42a5f5"/><path d="m40.5 14h-7.5v-7.5z" fill="#e1f5fe"/><g fill="#1565c0"><path d="m22 19h16v2h-16z"/><path d="m22 23h12v2h-12z"/><path d="m22 27h16v2h-16z"/><path d="m22 31h12v2h-12z"/></g><path d="m31 43h-25v-33h17l8 8z" fill="#90caf9"/><path d="m29.5 19h-7.5v-7.5z" fill="#e1f5fe"/><g fill="#1976d2"><path d="m11 24h15v2h-15z"/><path d="m11 28h11v2h-11z"/><path d="m11 32h15v2h-15z"/><path d="m11 36h11v2h-11z"/></g></svg>

<svg xmlns="http://www.w3.org/2000/svg" viewBox="0 0 48 48" width="50" height="50" fill="#666"><path fill="#42a5f5" d="M42 38L17 38 17 5 34 5 42 13z"/><path fill="#e1f5fe" d="M40.5 14L33 14 33 6.5z"/><path fill="#1565c0" d="M22 19H38V21H22z"/><path fill="#1565c0" d="M22 23H34V25H22z"/><path fill="#1565c0" d="M22 27H38V29H22z"/><path fill="#1565c0" d="M22 31H34V33H22z"/><g><path fill="#90caf9" d="M31 43L6 43 6 10 23 10 31 18z"/><path fill="#e1f5fe" d="M29.5 19L22 19 22 11.5z"/><path fill="#1976d2" d="M11 24H26V26H11z"/><path fill="#1976d2" d="M11 28H22V30H11z"/><path fill="#1976d2" d="M11 32H26V34H11z"/><path fill="#1976d2" d="M11 36H22V38H11z"/></g></svg>
